X:118
T:High Part Of The Road, The
R:jig
S:https://thesession.org/tunes/183
M:6/8
L:1/8
Z:Jeremy
K:Gmajor
|~B3 cBc|ded cAG|F2D DED|DGG FGA|
~B3 cBc|dcA d2e|fed cAF|AGF ~G3:||
|~g3 def|g2a bag|~f3 def|afd cAB|
~g3 def|g2a bag|fed cAF|AGF G3:||

